X: 9547
T: Date Honey
R: reel
M: 4/4
K: Dmajor
DE|:F2AB AFE2|DEFD B,2A,B,|D2DE FDAD|ABAF E2DE|
F2AB AFE2|DEFD B,2A,B,|D2DE FDAD|1 GFEF D2DE:|2 GFEF D2FA||
|:B2BA Bded|BdBA F2EF|A2AF ADAF|A1/2B1/2dAF E2DE|
F2AB AFBF|AFBd B3d|BAAB AFEF|1 AFEF D2FA:|2 AFEF D4|

